_includes/icons/ios-admin.svg

<svg fill="#666" height="50" viewBox="0 0 50 50" width="50" xmlns="http://www.w3.org/2000/svg"><path d="m25 2.0078125c-12.690704 0-22.9999998 10.3092955-23 22.9999995 0 12.690706 10.309295 23 23 23s23-10.309294 23-23c0-12.690704-10.309296-22.9999995-23-22.9999995zm0 2c11.609824 0 21 9.3901755 21 20.9999995 0 5.732697-2.296001 10.918044-6.011719 14.705079-1.829783-1.34332-4.060232-2.017311-5.949219-2.689453-1.06387-.378549-2.020411-.75368-2.71875-1.171876-.668808-.400511-1.040223-.812096-1.236328-1.285156-.09185-1.146861-.073246-2.070153-.066406-3.160156.121152-.120656.276577-.205427.400391-.351562.291988-.34463.589284-.763408.873047-1.234376.486588-.807601.840657-1.795399 1.039062-2.796874.302972-.154438.626621-.18786.873047-.501954.454973-.579907.762108-1.396002.898437-2.533203.120892-1.004049-.202605-1.694621-.61914-2.224609.448107-1.464821 1.002898-3.794331.814453-6.205078-.103672-1.326306-.437408-2.661327-1.240234-3.771485-.766468-1.05988-2.010855-1.8217448-3.603516-2.0976559-1.011557-1.1484756-2.618421-1.6894531-4.539063-1.6894531h-.009765-.007813c-4.302743.078993-7.078932 1.8598398-8.267578 4.576172-1.130291 2.582977-.887303 5.798598-.076172 9.146484-.436026.530024-.777588 1.233774-.654296 2.265625.136844 1.136817.443802 1.953249.898437 2.533203.246243.31412.569933.347427.873047.501954.198374 1.000696.552515 1.987152 1.039062 2.794921.283763.471106.580753.889462.873047 1.234375.123845.14614.279097.232788.400391.353516.0065 1.08943.024974 2.012364-.066406 3.160156-.195722.471317-.566646.88312-1.234375 1.285156-.697232.419802-1.652626.797015-2.714844 1.177735-1.886992.676334-4.116187 1.355162-5.951172 2.6875-3.7179952-3.787374-6.015625-8.9743-6.015625-14.708985.0000002-11.609823 9.390176-20.9999995 21-20.9999995zm-.078125 5.9941405c1.844126.0019 3.004405.54791 3.322266 1.105469l.24414.427734.486328.066406c1.256179.174546 1.958046.662017 2.460938 1.357422s.781988 1.665911.867187 2.75586c.1704 2.179897-.453605 4.754061-.849609 5.945312l-.251953.75586.68164.414062c-.06934-.04222.320485.188531.232422.919922-.10667.889799-.33405 1.343017-.486328 1.537109-.152277.194093-.217464.169301-.201172.167969l-.824218.06836-.087891.822265c-.07543.706466-.472775 1.67009-.9375 2.441406-.232363.385658-.479582.729208-.6875.97461-.207918.245401-.429343.397398-.345703.353515l-.535156.279297v.605469c0 1.324321-.053953 2.407291.085937 3.949219l.011719.132812.046875.125c.393532 1.05904 1.214978 1.806227 2.138672 2.359375.923693.553149 1.983418.952971 3.076172 1.341797 1.800955.64082 3.678324 1.271454 5.109375 2.203125-3.646288 3.054122-8.34295 4.896484-13.478516 4.896484-5.133578 0-9.828917-1.84058-13.474609-4.892578 1.439177-.926325 3.319344-1.558742 5.117187-2.203125 1.092032-.391405 2.148982-.792926 3.070313-1.347656.92133-.55473 1.739837-1.301791 2.132812-2.357422l.046875-.125.011719-.132812c.138745-1.540737.085937-2.62391.085937-3.949219v-.605469l-.535156-.28125c.08375.04381-.137716-.108085-.345703-.353515s-.455138-.586887-.6875-.972657c-.464724-.771538-.8621-1.735929-.9375-2.441406l-.087891-.822265-.824218-.06836c.01545.0013-.04906.02608-.201172-.167969-.152115-.194045-.379173-.646926-.486328-1.537109-.08741-.73154.306791-.965109.232422-.919922l.634765-.384766-.185547-.720703c-.860454-3.311707-.990573-6.324988-.105468-8.347656.884229-2.020669 2.655479-3.302664 6.460937-3.375z"/></svg>

<svg xmlns="http://www.w3.org/2000/svg" viewBox="0 0 50 50" width="50" height="50" fill="#666"><path style="line-height:normal;text-indent:0;text-align:start;text-decoration-line:none;text-decoration-style:solid;text-decoration-color:#000;text-transform:none;block-progression:tb;isolation:auto;mix-blend-mode:normal" d="M 25 2.0078125 C 12.309296 2.0078125 2.0000002 12.317108 2 25.007812 C 2 37.698518 12.309295 48.007812 25 48.007812 C 37.690705 48.007812 48 37.698518 48 25.007812 C 48 12.317108 37.690704 2.0078125 25 2.0078125 z M 25 4.0078125 C 36.609824 4.0078125 46 13.397988 46 25.007812 C 46 30.740509 43.703999 35.925856 39.988281 39.712891 C 38.158498 38.369571 35.928049 37.69558 34.039062 37.023438 C 32.975192 36.644889 32.018651 36.269758 31.320312 35.851562 C 30.651504 35.451051 30.280089 35.039466 30.083984 34.566406 C 29.992134 33.419545 30.010738 32.496253 30.017578 31.40625 C 30.13873 31.285594 30.294155 31.200823 30.417969 31.054688 C 30.709957 30.710058 31.007253 30.29128 31.291016 29.820312 C 31.777604 29.012711 32.131673 28.024913 32.330078 27.023438 C 32.63305 26.869 32.956699 26.835578 33.203125 26.521484 C 33.658098 25.941577 33.965233 25.125482 34.101562 23.988281 C 34.222454 22.984232 33.898957 22.29366 33.482422 21.763672 C 33.930529 20.298851 34.48532 17.969341 34.296875 15.558594 C 34.193203 14.232288 33.859467 12.897267 33.056641 11.787109 C 32.290173 10.727229 31.045786 9.9653642 29.453125 9.6894531 C 28.441568 8.5409775 26.834704 8 24.914062 8 L 24.904297 8 L 24.896484 8 C 20.593741 8.078993 17.817552 9.8598398 16.628906 12.576172 C 15.498615 15.159149 15.741603 18.37477 16.552734 21.722656 C 16.116708 22.25268 15.775146 22.95643 15.898438 23.988281 C 16.035282 25.125098 16.34224 25.94153 16.796875 26.521484 C 17.043118 26.835604 17.366808 26.868911 17.669922 27.023438 C 17.868296 28.024134 18.222437 29.01059 18.708984 29.818359 C 18.992747 30.289465 19.289737 30.707821 19.582031 31.052734 C 19.705876 31.198874 19.861128 31.285522 19.982422 31.40625 C 19.988922 32.49568 20.007396 33.418614 19.916016 34.566406 C 19.720294 35.037723 19.34937 35.449526 18.681641 35.851562 C 17.984409 36.271364 17.029015 36.648577 15.966797 37.029297 C 14.079805 37.705631 11.85061 38.384459 10.015625 39.716797 C 6.2976298 35.929423 4 30.742497 4 25.007812 C 4.0000002 13.397989 13.390176 4.0078125 25 4.0078125 z M 24.921875 10.001953 C 26.766001 10.003853 27.92628 10.549863 28.244141 11.107422 L 28.488281 11.535156 L 28.974609 11.601562 C 30.230788 11.776108 30.932655 12.263579 31.435547 12.958984 C 31.938439 13.654389 32.217535 14.624895 32.302734 15.714844 C 32.473134 17.894741 31.849129 20.468905 31.453125 21.660156 L 31.201172 22.416016 L 31.882812 22.830078 C 31.813472 22.787858 32.203297 23.018609 32.115234 23.75 C 32.008564 24.639799 31.781184 25.093017 31.628906 25.287109 C 31.476629 25.481202 31.411442 25.45641 31.427734 25.455078 L 30.603516 25.523438 L 30.515625 26.345703 C 30.440195 27.052169 30.04285 28.015793 29.578125 28.787109 C 29.345762 29.172767 29.098543 29.516317 28.890625 29.761719 C 28.682707 30.00712 28.461282 30.159117 28.544922 30.115234 L 28.009766 30.394531 L 28.009766 31 C 28.009766 32.324321 27.955813 33.407291 28.095703 34.949219 L 28.107422 35.082031 L 28.154297 35.207031 C 28.547829 36.266071 29.369275 37.013258 30.292969 37.566406 C 31.216662 38.119555 32.276387 38.519377 33.369141 38.908203 C 35.170096 39.549023 37.047465 40.179657 38.478516 41.111328 C 34.832228 44.16545 30.135566 46.007812 25 46.007812 C 19.866422 46.007812 15.171083 44.167232 11.525391 41.115234 C 12.964568 40.188909 14.844735 39.556492 16.642578 38.912109 C 17.73461 38.520704 18.79156 38.119183 19.712891 37.564453 C 20.634221 37.009723 21.452728 36.262662 21.845703 35.207031 L 21.892578 35.082031 L 21.904297 34.949219 C 22.043042 33.408482 21.990234 32.325309 21.990234 31 L 21.990234 30.394531 L 21.455078 30.113281 C 21.538828 30.157091 21.317362 30.005196 21.109375 29.759766 C 20.901388 29.514336 20.654237 29.172879 20.421875 28.787109 C 19.957151 28.015571 19.559775 27.05118 19.484375 26.345703 L 19.396484 25.523438 L 18.572266 25.455078 C 18.587716 25.456378 18.523206 25.481158 18.371094 25.287109 C 18.218979 25.093064 17.991921 24.640183 17.884766 23.75 C 17.797356 23.01846 18.191557 22.784891 18.117188 22.830078 L 18.751953 22.445312 L 18.566406 21.724609 C 17.705952 18.412902 17.575833 15.399621 18.460938 13.376953 C 19.345167 11.356284 21.116417 10.074289 24.921875 10.001953 z"/></svg>
